X:13
T:Flowers of Edinburgh
R:Reel
M:C|
L:1/8
S:Victoria_Conservatory/Mark_Gailey{chords}
K:G
|:GE|"G"D2 (3(DEF G3)A|(BG)Bd (cB)AG|"D"(FG)EF (DE)FG|AFdF E2(GE|!
"G"D2) (3(DEF G3)A|(BG)Bd "C"(ef)ge|"G"(dc)BA "D"(GF)GA|"G"B2 G2 G2:|!
|:(3GBd|"G"g2-gf (gb)ag|"D"f2d2 fagf|"C"(ed)ef gfed|"Em"B2e2-egfe|!
"G"(dB)GB d2Bd|"C"(ed)ef g2fe|"G"(dc)BA "D"(GF)GA|"G"BGGF G2:|

